X:1
T:Ach, Gott und Herr
T:Ach, Gott und Herr (per canonem), BWV 714
T:Ach, Gott und Herr (per canonem)
T:BWV 714
T:Johann Sebastian Bach
T:Public Domain
T:Public Domain
C:Johann Sebastian Bach
Z:Public Domain
%%score { ( 1 2 ) 3 } 4
L:1/8
Q:1/4=80
M:4/4
K:D
V:1 treble nm="Violin"
V:2 treble 
V:3 bass nm="Viola"
V:4 bass nm="Violoncello"
V:1
 B8 | A4 ^G4 | F8 | z4 F4 | ^G4 ^A4 | B4 z4 | z4 c4 | B4 A4 | ^G4 F4 | ^E4 F4 | ^G4 F4 | z4 A4 | %12
w: ||||||||||||
 F4 B4 | ^A4 z4 | z4 c4 | B4 d4 | c4 z4 | z4 F4 | ^G4 ^A4 | B4 c4 | d4 c4 | B4 ^A4 | B8- | %23
w: |||||||||||
 !fermata!B8 |][Q:1/4=160] B8 A4 ^G4 |"^Ach, Gott und Herr (Dorian)" !fermata!F12 F4 | %26
w: |Ach, Gott und|Herr, wie|
 ^G4 ^A4 !fermata!B12 c4 | B4 A4 ^G4 A4 | %28
w: groß und schwer sind|mein' be- gang'- ne|
"^Johann Hermann Schein, 1627""^Gotha, 1715 (in c)" ^G8 !fermata!F12 A4 | F4 B4 !fermata!^A12 c4 | %30
w: Sünd- en. Da|ist nie- mand, der|
 (B6 c2 d4) B4 | !fermata!c12 F4 | ^G4 ^A4 (B6 c2 | %33
w: hel- * * fen|kann, in|dies- er Welt- *|
"_Martin Rutilius, 1604" d4) B4 c8 !fermata!B8 |] %34
w: * zu find- en.|
V:2
 z2 B,2 D2 E2 | F6 ^E2 | z2 C2 ^D2 ^E2 | F4 =E2 =D2 | C2 E2 D2 C2 | B,4 C4 | D4 E2 F2- | %7
 F2 ^E2 F3 =E | ^D2 ^E2 F4 | z2 D2 C2 A,2 | ^G,2 B,2 A,2 B,2 | C3 B, A,B, C2 | D3 C B,CDE | %13
 F3 F E2 D2 | E2 F2 =G2 A2 | D2 E2 F2 ^G2 | ^A2 F4 E2- | E2 D2 C4 | D2 CB, C4 | B,2 F2 E2 DC | %20
 F4 E4 | D2 =G4 FE | ^D2 E2 TD3 C | !fermata!^D8 |] x16 | x16 | x24 | x16 | x24 | x24 | x16 | x16 | %32
 x16 | x24 |] %34
V:3
 z8 | z4 B,4 | A,4 ^G,4 | F,8 | z4 F,4 | ^G,4 ^A,4 | B,4 z4 | z4 C4 | B,4 A,4 | ^G,4 F,4 | %10
 ^E,4 F,4 | ^G,4 F,4 | z4 =G,4 | F,4 B,4 | ^A,2 z2 z4 | z4 B,4 | ^A,4 B,4 | C2 z2 z4 | z4 F,4 | %19
 ^G,4 ^A,4 | B,4 C4 | D4 C4 | B,A, =G,2 F,2 E,2 | !fermata!F,8 |] z16 | z16 | z16 x8 | z16 | %28
 z16 z8 | z16 z8 | z16 | z16 | z16 | z8 z4 z4 z8 |] %34
V:4
 z8 | z2 A,,2 B,,2 C,2 | F,,8 | z2 =D,2 C,2 B,,2 | E,4 z4 | z2 E,2 D,2 C,2 | B,,2 B,2 =A,4 | %7
 ^G,2 C,2 F,2 F,,2 | B,,3 C, =D,2 A,,B,, | C,2 B,,2 A,,2 F,,2 | C,4 D,4 | E,2 ^E,2 F,3 =E, | %12
 D,C,B,,A,, =G,,4 | z2 F,,2 ^G,,^A,, B,,2 | C,2 D,2 E,2 F,2 | =G,2 F,E, D,2 B,,2 | %16
 F,,3 F, =G,3 G, | ^A,,2 B,,4 A,,2 | B,,2 z2 z2 E,2- | E,2 D,2 C,2 F,2 | B,,2 B,4 ^A,2 | %21
 B,=A,=G,F, E,2 F,2 | B,,8- | !fermata!B,,8 |] z16 | z16 | z16 x8 | z16 | z16 z8 | z16 z8 | z16 | %31
 z16 | z16 | z8 z4 z4 z8 |] %34

